findly-builder/apps/searchassist/src/assets/icons/sidemenu/training.svg

<svg width="14" height="12" viewBox="0 0 14 12" fill="none" xmlns="http://www.w3.org/2000/svg">
<path fill-rule="evenodd" clip-rule="evenodd" d="M1 1.5C1 0.675781 1.67578 0 2.5 0C3.32422 0 4 0.675781 4 1.5C4 2.32422 3.32422 3 2.5 3C1.67578 3 1 2.32422 1 1.5ZM2.5 3H3.5C4.05981 3 4.49967 3.28103 4.88699 3.52849L4.96484 3.57812C5.24017 3.7502 5.51549 3.88281 5.65585 3.95041C5.72259 3.98255 5.75881 4 5.75 4H8V5H5.75C5.28206 5 4.96511 4.78247 4.65415 4.56905L4.65414 4.56905L4.65413 4.56904C4.58092 4.51879 4.50804 4.46877 4.43359 4.42188C4.04297 4.17969 3.65234 4 3.5 4H1.5C1.21875 4 1 4.21875 1 4.5V7.29297L2 8.29297V11H3V7H4V12H1V8.70703L0 7.70703V4.5C0 3.67578 0.675781 3 1.5 3H2.5ZM2.5 1C2.78125 1 3 1.21875 3 1.5C3 1.78125 2.78125 2 2.5 2C2.21875 2 2 1.78125 2 1.5C2 1.21875 2.21875 1 2.5 1ZM5 1.5C5 1.22266 5.22266 1 5.5 1H13.5C13.7773 1 14 1.22266 14 1.5V7.5C14 7.77734 13.7773 8 13.5 8H11.125L13.168 11H11.957L9.91797 8H9.08203L7.03906 11H5.83203L7.875 8H5.5C5.22266 8 5 7.77734 5 7.5V6H6V7H13V2H6V3H5.9375C5.87888 2.96651 5.80569 2.92179 5.73774 2.88029C5.6789 2.84435 5.62401 2.81082 5.58594 2.78906C5.40625 2.67188 5.20703 2.55469 5 2.44141V1.5Z" fill="#202124"/>
</svg>

<svg width="14" height="12" fill="none" xmlns="http://www.w3.org/2000/svg"><path fill-rule="evenodd" clip-rule="evenodd" d="M1 1.5C1 .676 1.676 0 2.5 0S4 .676 4 1.5 3.324 3 2.5 3 1 2.324 1 1.5ZM2.5 3h1c.56 0 1 .281 1.387.528l.078.05c.275.172.55.305.69.372.068.033.104.05.095.05H8v1H5.75c-.468 0-.785-.218-1.096-.431-.073-.05-.146-.1-.22-.147C4.043 4.18 3.652 4 3.5 4h-2c-.281 0-.5.219-.5.5v2.793l1 1V11h1V7h1v5H1V8.707l-1-1V4.5C0 3.676.676 3 1.5 3h1Zm0-2c.281 0 .5.219.5.5s-.219.5-.5.5a.494.494 0 0 1-.5-.5c0-.281.219-.5.5-.5Zm2.5.5c0-.277.223-.5.5-.5h8c.277 0 .5.223.5.5v6c0 .277-.223.5-.5.5h-2.375l2.043 3h-1.211L9.918 8h-.836l-2.043 3H5.832l2.043-3H5.5a.498.498 0 0 1-.5-.5V6h1v1h7V2H6v1h-.063c-.058-.033-.131-.078-.2-.12a2.906 2.906 0 0 0-.151-.09A8.94 8.94 0 0 0 5 2.44V1.5Z" fill="#202124"/></svg>
